!!!COM: Corelli, Arcangelo
!!!OTL: 
!!!ONM: Opus 3, No. 4
!!!OMV: 4
!!!CDT: 1653/2/17/-1713/1/8/
!!!OCY: Italia
**kern	**kern	**kern	**kern
*clefC	*clefC	*clefG	*clefG
*k[f#c#]	*k[f#c#]	*k[f#c#]	*k[f#c#]
*b:	*b:	*b:	*b:
*M2/2	*M2/2	*M2/2	*M2/2
=1	=1	=1	=1
4B	4B	1r	8r
.	.	.	8ff#
4A#	4A#	.	8cc#
.	.	.	8ff#
4B	4B	.	8dd
.	.	.	8ff#
4A#	4A#	.	8cc#
.	.	.	8ff#
=2	=2	=2	=2
4B	4B	1r	8dd
.	.	.	8ff#
4A	4A	.	8cc#
.	.	.	8ff#
4G	4G	.	8b
.	.	.	8ff#
4E	4E	.	8gg
.	.	.	8b
=3	=3	=3	=3
4F#	4F#	1r	8a#
.	.	.	8f#
4D	4D	.	2b
4E	4E	.	.
4F#	4F#	.	4a#
=4	=4	=4	=4
4BB	4BB	1r	8b
.	.	.	8dd
2.r	2.r	.	8cc#
.	.	.	8ee
.	.	.	8dd
.	.	.	8ff#
.	.	.	8ee
.	.	.	8gg
=5	=5	=5	=5
4F#	4F#	8r	4ff#
.	.	8cc#	.
4E#	4E#	8g#	4gg#
.	.	8cc#	.
4F#	4F#	8a	4cc#
.	.	8cc#	.
4E#	4E#	8g#	4r
.	.	8cc#	.
=6	=6	=6	=6
4F#	4F#	8a	4r
.	.	8cc#	.
4E	4E	8g#	2cc#
.	.	8cc#	.
2D	2D	8f#	.
.	.	8cc#	.
.	.	8dd	[4b
.	.	8f#	.
=7	=7	=7	=7
4C#	4C#	8e#	4b]
.	.	8c#	.
4D	4D	2f#	4a
4BB	4BB	.	2g#
4C#	4C#	4e#	.
=8	=8	=8	=8
2FF#	2FF#	8f#	4f#
.	.	8ff#	.
.	.	8cc#	4.r
.	.	8ff#	.
2BB	2BB	4dd	.
.	.	.	8bb
.	.	4B	8ff#
.	.	.	8bb
=9	=9	=9	=9
2E	2E	8r	4gg
.	.	8ee	.
.	.	8b	4e
.	.	8ee	.
2AA	2AA	4cc#	8r
.	.	.	8aa
.	.	4A	8ee
.	.	.	8aa
=10	=10	=10	=10
2D	2D	8r	4ff#
.	.	8dd	.
.	.	8a	4d
.	.	8dd	.
2GG	2GG	8b	8r
.	.	8dd	8bb
.	.	8gg	8b
.	.	8ff#	8dd
=11	=11	=11	=11
4.AA	4.AA	4ee	8cc#
.	.	.	8a
.	.	4r	2aa
8F#	8F#	.	.
8G	8G	2bb	.
8A	8A	.	.
8B	8B	.	[4gg
8c#	8c#	.	.
=12	=12	=12	=12
8d	8d	4aa	4gg]
8A	8A	.	.
8B	8B	2ddd	4ff#
8F#	8F#	.	.
8G	8G	.	2ee
8E	8E	.	.
8A	8A	4ccc#	.
8AA	8AA	.	.
=13	=13	=13	=13
4D	4D	4ddd	8dd
.	.	.	8ff#
4r	4r	2.r	8cc#
.	.	.	8ff#
4B	4B	.	8dd
.	.	.	8ff#
4A#	4A#	.	8cc#
.	.	.	8ff#
=14	=14	=14	=14
4B	4B	8r	4dd
.	.	8ff#	.
4A#	4A#	8cc#	4f#
.	.	8ff#	.
4B	4B	8dd	2r
.	.	8ff#	.
4A#	4A#	8cc#	.
.	.	8ff#	.
=15	=15	=15	=15
4B	4B	4dd	8r
.	.	.	8ee
4G#	4G#	4B	8b
.	.	.	8ee
4A	4A	2r	8cc#
.	.	.	8ee
4G#	4G#	.	8b
.	.	.	8ee
=16	=16	=16	=16
4A	4A	8r	4cc#
.	.	8ee	.
4G#	4G#	8b	4e
.	.	8ee	.
4A	4A	8cc#	2r
.	.	8ee	.
4G#	4G#	8b	.
.	.	8ee	.
=17	=17	=17	=17
4A	4A	4cc#	8r
.	.	.	8cc#
4E#	4E#	4c#	8g#
.	.	.	8cc#
4F#	4F#	2r	8a
.	.	.	8cc#
4E#	4E#	.	8g#
.	.	.	8cc#
=18	=18	=18	=18
4F#	4F#	8r	4a
.	.	8cc#	.
4E#	4E#	8g#	4c#
.	.	8cc#	.
4F#	4F#	8a	2r
.	.	8cc#	.
4E#	4E#	8g#	.
.	.	8cc#	.
=19	=19	=19	=19
4F#	4F#	8a	4r
.	.	8cc#	.
4E	4E	8g#	2cc#
.	.	8cc#	.
2D	2D	8f#	.
.	.	8cc#	.
.	.	8dd	[4b
.	.	8f#	.
=20	=20	=20	=20
4C#	4C#	8e#	4b]
.	.	8c#	.
4D	4D	2f#	4a
4BB	4BB	.	2g#
4C#	4C#	4e#	.
=21	=21	=21	=21
2F#	2F#	4f#	8f#
.	.	.	8cc#
.	.	2.r	8ff#
.	.	.	8aa
2r	2r	.	8ff#
.	.	.	8cc#
.	.	.	8ff#
.	.	.	8aa
=22	=22	=22	=22
2F#	2F#	8r	2ff#
.	.	8cc#	.
.	.	8ff#	.
.	.	8aa	.
2r	2r	8ff#	2r
.	.	8cc#	.
.	.	8ff#	.
.	.	8aa	.
=23	=23	=23	=23
4F#	4F#	8ff#	4r
.	.	8cc#	.
4AA	4AA	8ff#	2ccc#
.	.	8aa	.
2BB	2BB	8ff#	.
.	.	8aa	.
.	.	8gg#	[4bb
.	.	8ff#	.
=24	=24	=24	=24
4C#	4C#	4ee#	4bb]
4FF#	4FF#	2ff#	4aa
2C#	2C#	.	2gg#
.	.	4ee#	.
=25	=25	=25	=25
4FF#	4FF#	4ff#	8ff#
.	.	.	8cc#
4r	4r	2.r	8g#
.	.	.	8cc#
4f#	4f#	.	8a
.	.	.	8cc#
4e#	4e#	.	8g#
.	.	.	8cc#
=26	=26	=26	=26
4f#	4f#	8r	4a
.	.	8cc#	.
4e#	4e#	8g#	4c#
.	.	8cc#	.
4f#	4f#	8a	2r
.	.	8cc#	.
4e#	4e#	8g#	.
.	.	8cc#	.
=27	=27	=27	=27
4f#	4f#	4a	8r
.	.	.	8b
4r	4r	2.r	8f#
.	.	.	8b
4e	4e	.	8g
.	.	.	8b
4d#	4d#	.	8f#
.	.	.	8b
=28	=28	=28	=28
4e	4e	8r	4g
.	.	8b	.
4d#	4d#	8f#	4B
.	.	8b	.
4e	4e	8g	2r
.	.	8b	.
4d#	4d#	8f#	.
.	.	8b	.
=29	=29	=29	=29
4E	4E	8g	4r
.	.	8b	.
4D	4D	8f#	2b
.	.	8b	.
2C	2C	8e	.
.	.	8b	.
.	.	8cc	[4a
.	.	8e	.
=30	=30	=30	=30
4BB	4BB	8d#	4a]
.	.	8B	.
4C	4C	2e	4g
4AA	4AA	.	2f#
4BB	4BB	4d#	.
=31	=31	=31	=31
2E	2E	2e	8e
.	.	.	8bb
.	.	.	8aa
.	.	.	8gg
2BB	2BB	2r	8aa
.	.	.	8gg
.	.	.	8aa
.	.	.	8ff#
=32	=32	=32	=32
2E	2E	8r	8gg
.	.	8bb	8gg
.	.	8aa	8ff#
.	.	8gg	8ee
2BB	2BB	8aa	8ff#
.	.	8gg	8ee
.	.	8aa	8ff#
.	.	8ff#	8dd#
=33	=33	=33	=33
2E	2E	8gg	8ee
.	.	8gg	8bb
.	.	8ff#	8aa
.	.	8ee	8gg
2BB	2BB	8ff#	8aa
.	.	8ee	8gg
.	.	8ff#	8aa
.	.	8dd#	8ff#
=34	=34	=34	=34
2E	2E	8ee	8gg
.	.	8bb	8gg
.	.	8aa	8ff#
.	.	8gg	8ee
2BB	2BB	8ff#	8dd
.	.	8ff#	8dd
.	.	8ee	8cc#
.	.	8dd	8b
=35	=35	=35	=35
4F#	4F#	4cc#	8a#
.	.	.	8f#
4D	4D	4r	2ff#
4BB	4BB	2gg	.
4C#	4C#	.	[4ee
=36	=36	=36	=36
4D	4D	2ff#	4ee]
4F#	4F#	.	2dd
4G#	4G#	2ee	.
4A#	4A#	.	[4cc#
=37	=37	=37	=37
4B	4B	2dd	4cc#]
4D	4D	.	2b
4E	4E	[2cc#	.
4F#	4F#	.	4a#
=38	=38	=38	=38
8BB	8BB	4cc#]	2dd
8C#	8C#	.	.
8D	8D	2b	.
8E	8E	.	.
8F#	8F#	.	2cc#
8G	8G	.	.
8A	8A	[4a	.
8F#	8F#	.	.
=39	=39	=39	=39
8G	8G	4a]	2b
8A	8A	.	.
8B	8B	2g	.
8c#	8c#	.	.
8d	8d	.	2a
8D	8D	.	.
8F#	8F#	[4f#	.
8D	8D	.	.
=40	=40	=40	=40
8E	8E	4f#]	2g
8D	8D	.	.
8C#	8C#	2e	.
8AA	8AA	.	.
8D	8D	.	2f#
8E	8E	.	.
8F#	8F#	[4d	.
8D	8D	.	.
=41	=41	=41	=41
8G	8G	4d]	2e
8E	8E	.	.
8A	8A	4c#	.
8AA	8AA	.	.
4D	4D	4d	8d
.	.	.	8ff#
4r	4r	4r	8cc#
.	.	.	8ff#
=42	=42	=42	=42
4B	4B	2r	8dd
.	.	.	8ff#
4A#	4A#	.	8cc#
.	.	.	8ff#
4B	4B	8r	4dd
.	.	8b	.
4r	4r	8f#	4B
.	.	8b	.
=43	=43	=43	=43
4e	4e	8g	2r
.	.	8b	.
4d#	4d#	8f#	.
.	.	8b	.
4e	4e	4g	8r
.	.	.	8ee
4r	4r	4B	8b
.	.	.	8ee
=44	=44	=44	=44
4A	4A	2r	8cc#
.	.	.	8ee
4G#	4G#	.	8b
.	.	.	8ee
4A	4A	8r	4cc#
.	.	8a	.
4r	4r	8e	4A
.	.	8a	.
=45	=45	=45	=45
4d	4d	8f#	2r
.	.	8a	.
4c#	4c#	8e	.
.	.	8a	.
4d	4d	8f#	8r
.	.	8ff#	8aa
4D	4D	8ee	8gg
.	.	8dd	8ff#
=46	=46	=46	=46
2E	2E	8cc#	8ee
.	.	8dd	8ff#
.	.	8cc#	8ee
.	.	8b	8dd
4F#	4F#	8a#	4cc#
.	.	8f#	.
4D	4D	[4ff#	4r
=47	=47	=47	=47
2E	2E	4ff#]	2gg
.	.	2ee	.
4F#	4F#	.	4a#
4BB	4BB	4dd	[4b
=48	=48	=48	=48
2F#	2F#	2cc#	4b]
.	.	.	4a#
4BB	4BB	4b	4b
4D	4D	4r	[4ff#
=49	=49	=49	=49
2E	2E	2gg	4ff#]
.	.	.	2ee
2F#	2F#	4a#	.
.	.	[4b	4dd
=50	=50	=50	=50
2FF#	2FF#	4b]	2cc#
.	.	4a#	.
2BB	2BB	2b	2b
==	==	==	==
*-	*-	*-	*-
!!!RWG: This file only contains pitch and duration data.
!!!RWG: Transposing instruments are not transposed.
!!!RWG: Durations of rests and tied notes may be interpreted.
!!!RWG: Key is interpreted using the Humdrum key tool.
!!!SCA: 
!!!YOR: Chrysander Edition
!!!AGN: chamber
!!!AFT: stage1
!!!ENC: F. Bennion
!!!END: 1997/04/15
!!!AST: baroque
!!!YEC: Copyright 1994, Center for Computer Assisted Research in the Humanities
!!!YEM: Rights to all derivative electronic formats reserved.
!!!YEM: Refer to licensing agreement for further details.
!!!YEN: United States of America
!!!EED: W.B. Hewlett
!!!KEY: 97575091
!!!EMD: Converted from MuseData to Humdrum Aug 9, 1999, by Bret Aarden using muse2kern.
!!!VTS: 2898127876
